loleaflet/images/lc_deletedatalabel.svg

<svg viewBox="0 0 24 24" xmlns="http://www.w3.org/2000/svg"><path d="m12 5c-.554 0-1 .446-1 1v12c0 .554.446 1 1 1h2c.554 0 1-.446 1-1v-.875l-2.705078-2.705078a.99796773.99796773 0 0 1 0-1.410156l.714844-.714844a.99796773.99796773 0 0 1 .689453-.292969.99796773.99796773 0 0 1 .720703.292969l.580078.580078v-6.875c0-.554-.446-1-1-1z" fill="#3a3a38"/><g fill="#3a3a38" transform="matrix(0 -1 -1 0 0 0)"><rect height="1" ry=".5" width="20" x="-22" y="-5"/><path d="m2.5 19c-.277 0-.5.223-.5.5s.223.5.5.5h11.375l1-1z" transform="matrix(0 -1 -1 0 0 0)"/></g><path d="m12 6v12h2v-1.875l-1.705078-1.705078a.99796773.99796773 0 0 1 0-1.410156l.714844-.714844a.99796773.99796773 0 0 1 .689453-.292969.99796773.99796773 0 0 1 .300781.042969v-6.044922z" fill="#c8c6c4"/><rect fill="#3a3a38" height="11" ry="1" width="4" x="6" y="8"/><path d="m7 9h2v9h-2z" fill="#c8c6c4"/><path d="m17 11c-.554 0-1 .446-1 1v1.875l2 2 2-2v-1.875c0-.554-.446-1-1-1z" fill="#3a3a38"/><path d="m17 12v2.875l1 1 1-1v-2.875z" fill="#c8c6c4"/><g fill="#ed3d3b"><rect height="2" ry=".5" width="4" x="16" y="8"/><path d="m22.285683 12.999968-4.285715 4.285714-4.285715-4.285714-.714285.714285 4.285714 4.285715-4.285714 4.285715.714285.714285 4.285715-4.285714 4.285715 4.285714.714285-.714285-4.285714-4.285715 4.285714-4.285715z"/></g></svg>

<?xml version="1.0" encoding="UTF-8" standalone="no"?>
<svg
   xmlns:dc="http://purl.org/dc/elements/1.1/"
   xmlns:cc="http://creativecommons.org/ns#"
   xmlns:rdf="http://www.w3.org/1999/02/22-rdf-syntax-ns#"
   xmlns:svg="http://www.w3.org/2000/svg"
   xmlns="http://www.w3.org/2000/svg"
   xmlns:sodipodi="http://sodipodi.sourceforge.net/DTD/sodipodi-0.dtd"
   xmlns:inkscape="http://www.inkscape.org/namespaces/inkscape"
   viewBox="0 0 24 24"
   version="1.1"
   id="svg20"
   sodipodi:docname="lc_deletedatalabel.svg"
   inkscape:version="0.92.5 (2060ec1f9f, 2020-04-08)">
  <metadata
     id="metadata26">
    <rdf:RDF>
      <cc:Work
         rdf:about="">
        <dc:format>image/svg+xml</dc:format>
        <dc:type
           rdf:resource="http://purl.org/dc/dcmitype/StillImage" />
        <dc:title></dc:title>
      </cc:Work>
    </rdf:RDF>
  </metadata>
  <defs
     id="defs24" />
  <sodipodi:namedview
     pagecolor="#ffffff"
     bordercolor="#666666"
     borderopacity="1"
     objecttolerance="10"
     gridtolerance="10"
     guidetolerance="10"
     inkscape:pageopacity="0"
     inkscape:pageshadow="2"
     inkscape:window-width="1366"
     inkscape:window-height="700"
     id="namedview22"
     showgrid="true"
     inkscape:zoom="13.906433"
     inkscape:cx="17.21196"
     inkscape:cy="10.386211"
     inkscape:window-x="0"
     inkscape:window-y="0"
     inkscape:window-maximized="1"
     inkscape:current-layer="svg20"
     inkscape:snap-global="false">
    <inkscape:grid
       type="xygrid"
       id="grid833" />
  </sodipodi:namedview>
  <path
     d="M 12 5 C 11.446 5 11 5.446 11 6 L 11 18 C 11 18.554 11.446 19 12 19 L 14 19 C 14.554 19 15 18.554 15 18 L 15 17.125 L 12.294922 14.419922 A 0.99796773 0.99796773 0 0 1 12.294922 13.009766 L 13.009766 12.294922 A 0.99796773 0.99796773 0 0 1 13.699219 12.001953 A 0.99796773 0.99796773 0 0 1 14.419922 12.294922 L 15 12.875 L 15 6 C 15 5.446 14.554 5 14 5 L 12 5 z "
     id="rect2"
     style="fill:#3a3a38" />
  <g
     fill="#3a3a38"
     transform="matrix(0 -1 -1 0 0 0)"
     id="g8">
    <rect
       height="1"
       ry=".5"
       width="20"
       x="-22"
       y="-5"
       id="rect4" />
    <path
       d="M 2.5,19 C 2.223,19 2,19.223 2,19.5 2,19.777 2.223,20 2.5,20 h 11.375 l 1,-1 z"
       transform="matrix(0,-1,-1,0,0,0)"
       id="rect6"
       inkscape:connector-curvature="0"
       sodipodi:nodetypes="sssccs" />
  </g>
  <path
     d="M 12 6 L 12 18 L 14 18 L 14 16.125 L 12.294922 14.419922 A 0.99796773 0.99796773 0 0 1 12.294922 13.009766 L 13.009766 12.294922 A 0.99796773 0.99796773 0 0 1 13.699219 12.001953 A 0.99796773 0.99796773 0 0 1 14 12.044922 L 14 6 L 12 6 z "
     id="path10"
     style="fill:#c8c6c4" />
  <rect
     fill="#3a3a38"
     height="11"
     ry="1"
     width="4"
     x="6"
     y="8"
     id="rect12" />
  <path
     d="m7 9h2v9h-2z"
     fill="#c8c6c4"
     id="path14" />
  <path
     d="M 17 11 C 16.446 11 16 11.446 16 12 L 16 13.875 L 18 15.875 L 20 13.875 L 20 12 C 20 11.446 19.554 11 19 11 L 17 11 z "
     id="rect16"
     style="fill:#3a3a38" />
  <path
     d="M 17 12 L 17 14.875 L 18 15.875 L 19 14.875 L 19 12 L 17 12 z "
     id="path18"
     style="fill:#c8c6c4" />
  <rect
     style="opacity:1;fill:#ed3d3b;fill-opacity:1;stroke:none;stroke-width:1;stroke-linecap:round;stroke-linejoin:round;stroke-miterlimit:4;stroke-dasharray:none;stroke-opacity:0.50196078"
     id="rect835"
     width="4"
     height="2"
     x="16"
     y="8"
     ry="0.5" />
  <path
     inkscape:connector-curvature="0"
     d="m 22.285683,12.999968 -4.285715,4.285714 -4.285715,-4.285714 -0.714285,0.714285 4.285714,4.285715 -4.285714,4.285715 0.714285,0.714285 4.285715,-4.285714 4.285715,4.285714 0.714285,-0.714285 -4.285714,-4.285715 4.285714,-4.285715 z"
     id="path14-3"
     style="fill:#ed3d3b" />
</svg>
